X:1
T:Title
L:1/8
M:3/4
I:linebreak $
K:G
V:1 treble nm="Voice" snm="Voice"
V:1
 DE F |: G4 A2 | B4 e2 | d3 e d^c | d3 D E2 | G4 A2 |"Bdim" B4 c2 | A3 B AG |"D7" A4 G2 |$ %9
"D7" A4 B2 | c4 g2 | f3 g fg | f4 e2 |"D7" d3 ^c de | d2 ^c2 =c2 |"G" B3 c BA | [FAd]2 B3 [Ed]2 |:$ %17
 g4 g2 | f4 f2 |"G" e2 f2 g2 | B6 |"G" B2 A2 G2 | B2"Bdim" A2 B2 | (c3 d) cB |"D7" e4 e2 | e4 e2 |$ %26
"D7" e2 f2 g2 | f4 e2 |"D7" d3 c de | B3 c BA | B3 [Fd]2 [Fe]2 | [FBd]2 d2 B2 | G3 A GF | G3 |] %34
